X: 16844
T: Harvest Moon
R: reel
M: 4/4
K: Adorian
G|EAAG AcBA|GE~E2 GABd|eA~A2 Bdeg|~a2ge d2Bd|
eAAG AcBA|GE~E2 GABd|ea~a2 gedB|GABG A3:|
B|cBcd eg~g2|eaaf g2ag|eA~A2 Bdeg|~a2ge d2ed|
cBcd eg~g2|eaaf g2ed|~c2BA GEDE|GABc A3:|

